<?xml version="1.0" encoding="UTF-8"?>
<map version="1.10" tiledversion="1.10.2" orientation="orthogonal" renderorder="right-down" compressionlevel="0" width="6" height="6" tilewidth="16" tileheight="16" infinite="0" nextlayerid="9" nextobjectid="3">
 <properties>
  <property name="AmbientLight" value="70 70 70"/>
 </properties>
 <tileset firstgid="1" name="p" tilewidth="16" tileheight="16" tilecount="64" columns="4">
  <image source="../DwarfTent/.paths.png" width="64" height="256"/>
 </tileset>
 <tileset firstgid="65" name="untitled tile sheet" tilewidth="16" tileheight="16" tilecount="2176" columns="32">
  <image source="../DwarfTent/.townInterior.png" width="512" height="1088"/>
 </tileset>
 <layer id="1" name="Back" width="6" height="6">
  <data encoding="csv">
0,0,0,0,0,0,
0,0,0,0,0,0,
0,0,0,0,0,0,
0,0,0,0,0,0,
0,0,0,0,0,0,
0,0,0,0,0,0
</data>
 </layer>
 <layer id="2" name="Buildings" width="6" height="6">
  <data encoding="csv">
0,0,0,0,0,0,
0,0,0,0,0,0,
0,0,0,0,0,0,
0,0,0,0,0,0,
0,0,0,0,0,0,
0,0,0,0,0,0
</data>
 </layer>
 <layer id="3" name="Front" width="6" height="6">
  <data encoding="csv">
0,0,0,0,0,0,
0,0,0,0,0,0,
0,0,0,0,0,0,
0,0,0,0,0,0,
0,0,0,0,0,0,
0,0,0,0,0,0
</data>
 </layer>
 <layer id="4" name="Paths" width="6" height="6">
  <data encoding="csv">
0,0,0,0,0,0,
0,0,0,0,0,0,
0,0,0,0,0,0,
0,0,0,0,0,0,
0,0,0,0,0,0,
0,0,0,0,0,0
</data>
 </layer>
 <objectgroup id="5" name="Back"/>
 <objectgroup id="6" name="Buildings"/>
 <objectgroup id="7" name="Front"/>
 <objectgroup id="8" name="Paths"/>
</map>
